images/deltas.svg

<?xml version="1.0" encoding="UTF-8"?>
<svg width="558px" height="216px" version="1.1" viewBox="0 0 558 216" xmlns="http://www.w3.org/2000/svg" xmlns:cc="http://creativecommons.org/ns#" xmlns:dc="http://purl.org/dc/elements/1.1/" xmlns:rdf="http://www.w3.org/1999/02/22-rdf-syntax-ns#">
 <metadata>
  <rdf:RDF>
   <cc:Work rdf:about="">
    <dc:format>image/svg+xml</dc:format>
    <dc:type rdf:resource="http://purl.org/dc/dcmitype/StillImage"/>
    <dc:title>images/deltas</dc:title>
   </cc:Work>
  </rdf:RDF>
 </metadata>
 <title>images/deltas</title>
 <desc>Created with Sketch.</desc>
 <g fill-rule="evenodd">
  <rect transform="translate(1,26)" width="89" height="33" rx="16.5" fill="#cd9f00"/>
  <text transform="translate(1,26)" fill="white" fill-opacity=".8" font-family="'Source Code Pro'" font-size="12px" font-weight="900" text-anchor="middle"><tspan x="44.5" y="20" fill="white" fill-opacity=".8">Version 1</tspan></text>
  <rect transform="translate(117,26)" width="89" height="33" rx="16.5" fill="#cd9f00"/>
  <text transform="translate(117,26)" fill="white" fill-opacity=".8" font-family="'Source Code Pro'" font-size="12px" font-weight="900" text-anchor="middle"><tspan x="44.5" y="20" fill="white" fill-opacity=".8">Version 2</tspan></text>
  <rect transform="translate(233,26)" width="89" height="33" rx="16.5" fill="#cd9f00"/>
  <text transform="translate(233,26)" fill="white" fill-opacity=".8" font-family="'Source Code Pro'" font-size="12px" font-weight="900" text-anchor="middle"><tspan x="44.5" y="20" fill="white" fill-opacity=".8">Version 3</tspan></text>
  <rect transform="translate(349,26)" width="89" height="33" rx="16.5" fill="#cd9f00"/>
  <text transform="translate(349,26)" fill="white" fill-opacity=".8" font-family="'Source Code Pro'" font-size="12px" font-weight="900" text-anchor="middle"><tspan x="44.5" y="20" fill="white" fill-opacity=".8">Version 4</tspan></text>
  <rect transform="translate(465,26)" width="89" height="33" rx="16.5" fill="#cd9f00"/>
  <text transform="translate(465,26)" fill="white" fill-opacity=".8" font-family="'Source Code Pro'" font-size="12px" font-weight="900" text-anchor="middle"><tspan x="44.5" y="20" fill="white" fill-opacity=".8">Version 5</tspan></text>
  <g id="brown" transform="translate(1,85)">
   <rect width="89" height="33" rx="16.5" fill="#efefe7" fill-rule="evenodd"/>
   <text fill="#979797" font-family="'Source Code Pro'" font-size="12px" font-weight="900" text-anchor="middle"><tspan x="44.5" y="21">File A</tspan></text>
  </g>
  <rect transform="translate(1,85)" width="89" height="33" rx="16.5" fill="#efefe7"/>
  <text transform="translate(1,85)" fill="#4d4d4d" font-family="'Source Code Pro'" font-size="12px" font-weight="900" text-anchor="middle"><tspan x="44.5" y="21" fill="#4d4d4d">File A</tspan></text>
  <rect transform="translate(117,85)" width="89" height="33" rx="16.5" fill="#efefe7"/>
  <text transform="translate(117,85)" fill="#4d4d4d" font-family="'Source Code Pro'" font-size="12px" font-weight="900" text-anchor="middle"><tspan x="44.5" y="21" fill="#4d4d4d">Δ1</tspan></text>
  <rect transform="translate(117,183)" width="89" height="33" rx="16.5" fill="#efefe7"/>
  <text transform="translate(117,183)" fill="#4d4d4d" font-family="'Source Code Pro'" font-size="12px" font-weight="900" text-anchor="middle"><tspan x="44.5" y="21" fill="#4d4d4d">Δ1</tspan></text>
  <rect transform="translate(233,183)" width="89" height="33" rx="16.5" fill="#efefe7"/>
  <text transform="translate(233,183)" fill="#4d4d4d" font-family="'Source Code Pro'" font-size="12px" font-weight="900" text-anchor="middle"><tspan x="44.5" y="21" fill="#4d4d4d">Δ2</tspan></text>
  <rect transform="translate(349,134)" width="89" height="33" rx="16.5" fill="#efefe7"/>
  <text transform="translate(349,134)" fill="#4d4d4d" font-family="'Source Code Pro'" font-size="12px" font-weight="900" text-anchor="middle"><tspan x="44.5" y="21" fill="#4d4d4d">Δ1</tspan></text>
  <rect transform="translate(349,85)" width="89" height="33" rx="16.5" fill="#efefe7"/>
  <text transform="translate(349,85)" fill="#4d4d4d" font-family="'Source Code Pro'" font-size="12px" font-weight="900" text-anchor="middle"><tspan x="44.5" y="21" fill="#4d4d4d">Δ2</tspan></text>
  <rect transform="translate(465,134)" width="89" height="33" rx="16.5" fill="#efefe7"/>
  <text transform="translate(465,134)" fill="#4d4d4d" font-family="'Source Code Pro'" font-size="12px" font-weight="900" text-anchor="middle"><tspan x="44.5" y="21" fill="#4d4d4d">Δ2</tspan></text>
  <rect transform="translate(465,183)" width="89" height="33" rx="16.5" fill="#efefe7"/>
  <text transform="translate(465,183)" fill="#4d4d4d" font-family="'Source Code Pro'" font-size="12px" font-weight="900" text-anchor="middle"><tspan x="44.5" y="21" fill="#4d4d4d">Δ3</tspan></text>
  <rect transform="translate(1,134)" width="89" height="33" rx="16.5" fill="#efefe7"/>
  <text transform="translate(1,134)" fill="#4d4d4d" font-family="'Source Code Pro'" font-size="12px" font-weight="900" text-anchor="middle"><tspan x="44.5" y="21" fill="#4d4d4d">File B</tspan></text>
  <rect transform="translate(1,183)" width="89" height="33" rx="16.5" fill="#efefe7"/>
  <text transform="translate(1,183)" fill="#4d4d4d" font-family="'Source Code Pro'" font-size="12px" font-weight="900" text-anchor="middle"><tspan x="44.5" y="21" fill="#4d4d4d">File C</tspan></text>
 </g>
 <g fill="#8f8981">
  <path id="Line" transform="translate(1,-1)" d="m107 103h-18v-1h18v-4l9 4.5-9 4.5z"/>
  <path transform="translate(1,-1)" d="m339 103h-134v-1h134v-4l9 4.5-9 4.5z"/>
  <path transform="translate(1,-1)" d="m339 152h-250v-1h250v-4l9 4.5-9 4.5z"/>
  <path transform="translate(1,-1)" d="m107 201h-18v-1h18v-4l9 4.5-9 4.5z"/>
  <path transform="translate(1,-1)" d="m223 201h-18v-1h18v-4l9 4.5-9 4.5z"/>
  <path transform="translate(1,-1)" d="m455 201h-134v-1h134v-4l9 4.5-9 4.5z"/>
  <path transform="translate(1,-1)" d="m455 152h-18v-1h18v-4l9 4.5-9 4.5z"/>
  <path transform="translate(1,-1)" d="m538.5 17h-539v-2h539v-6l14 7-14 7z"/>
 </g>
 <text id="Checkins-Over-Time" transform="translate(1,-1)" fill="#4d4d4d" fill-rule="evenodd" font-family="'Source Code Pro'" font-size="12px" font-weight="900"><tspan x="211" y="11" fill="#4d4d4d">Checkins Over Time</tspan></text>
</svg>

<?xml version="1.0"?>
<svg xmlns="http://www.w3.org/2000/svg" xmlns:xlink="http://www.w3.org/1999/xlink" width="558px" height="216px" viewBox="0 0 558 216" version="1.1">
    <!-- Generator: Sketch 56.3 (81716) - https://sketch.com -->
    <title>images/deltas</title>
    <desc>Created with Sketch.</desc>
    <g id="01---Deltas-vs.-Snapshots" stroke="none" stroke-width="1" fill="none" fill-rule="evenodd">
        <g id="Group" transform="translate(1.000000, -1.000000)">
            <g id="gold" transform="translate(0.000000, 27.000000)">
                <rect id="Rectangle-1" fill="#CD9F00" fill-rule="evenodd" x="0" y="0" width="89" height="33" rx="16.5"/>
                <text stroke="none" font-family="Source Code Pro" font-size="12px" font-weight="900" fill="#979797" fill-opacity="1" text-anchor="middle" id="Version-5">
                    <tspan x="44.5" y="20">Version 1</tspan>
                </text>
            </g>
            <g id="gold" transform="translate(116.000000, 27.000000)">
                <rect id="Rectangle-1" fill="#CD9F00" fill-rule="evenodd" x="0" y="0" width="89" height="33" rx="16.5"/>
                <text stroke="none" font-family="Source Code Pro" font-size="12px" font-weight="900" fill="#979797" fill-opacity="1" text-anchor="middle" id="Version-5">
                    <tspan x="44.5" y="20">Version 2</tspan>
                </text>
            </g>
            <g id="gold" transform="translate(232.000000, 27.000000)">
                <rect id="Rectangle-1" fill="#CD9F00" fill-rule="evenodd" x="0" y="0" width="89" height="33" rx="16.5"/>
                <text stroke="none" font-family="Source Code Pro" font-size="12px" font-weight="900" fill="#979797" fill-opacity="1" text-anchor="middle" id="Version-5">
                    <tspan x="44.5" y="20">Version 3</tspan>
                </text>
            </g>
            <g id="gold" transform="translate(348.000000, 27.000000)">
                <rect id="Rectangle-1" fill="#CD9F00" fill-rule="evenodd" x="0" y="0" width="89" height="33" rx="16.5"/>
                <text stroke="none" font-family="Source Code Pro" font-size="12px" font-weight="900" fill="#979797" fill-opacity="1" text-anchor="middle" id="Version-5">
                    <tspan x="44.5" y="20">Version 4</tspan>
                </text>
            </g>
            <g id="gold" transform="translate(464.000000, 27.000000)">
                <rect id="Rectangle-1" fill="#CD9F00" fill-rule="evenodd" x="0" y="0" width="89" height="33" rx="16.5"/>
                <text stroke="none" font-family="Source Code Pro" font-size="12px" font-weight="900" fill="#979797" fill-opacity="1" text-anchor="middle" id="Version-5">
                    <tspan x="44.5" y="20">Version 5</tspan>
                </text>
            </g>
            <g id="brown" transform="translate(0.000000, 86.000000)">
                <rect id="Rectangle-1" fill="#EFEFE7" fill-rule="evenodd" x="0" y="0" width="89" height="33" rx="16.5"/>
                <text stroke="none" font-family="Source Code Pro" font-size="12px" font-weight="900" fill="#979797" fill-opacity="1" text-anchor="middle" id="C6">
                    <tspan x="44.5" y="21">File A</tspan>
                </text>
            </g>
            <g id="brown" transform="translate(0.000000, 86.000000)">
                <rect id="Rectangle-1" fill="#EFEFE7" fill-rule="evenodd" x="0" y="0" width="89" height="33" rx="16.5"/>
                <text stroke="none" font-family="Source Code Pro" font-size="12px" font-weight="900" fill="#979797" fill-opacity="1" text-anchor="middle" id="C6">
                    <tspan x="44.5" y="21">File A</tspan>
                </text>
            </g>
            <g id="brown" transform="translate(116.000000, 86.000000)">
                <rect id="Rectangle-1" fill="#EFEFE7" fill-rule="evenodd" x="0" y="0" width="89" height="33" rx="16.5"/>
                <text stroke="none" font-family="Source Code Pro" font-size="12px" font-weight="900" fill="#979797" fill-opacity="1" text-anchor="middle" id="C6">
                    <tspan x="44.5" y="21">Δ1</tspan>
                </text>
            </g>
            <g id="brown" transform="translate(116.000000, 184.000000)">
                <rect id="Rectangle-1" fill="#EFEFE7" fill-rule="evenodd" x="0" y="0" width="89" height="33" rx="16.5"/>
                <text stroke="none" font-family="Source Code Pro" font-size="12px" font-weight="900" fill="#979797" fill-opacity="1" text-anchor="middle" id="C6">
                    <tspan x="44.5" y="21">Δ1</tspan>
                </text>
            </g>
            <g id="brown" transform="translate(232.000000, 184.000000)">
                <rect id="Rectangle-1" fill="#EFEFE7" fill-rule="evenodd" x="0" y="0" width="89" height="33" rx="16.5"/>
                <text stroke="none" font-family="Source Code Pro" font-size="12px" font-weight="900" fill="#979797" fill-opacity="1" text-anchor="middle" id="C6">
                    <tspan x="44.5" y="21">Δ2</tspan>
                </text>
            </g>
            <g id="brown" transform="translate(348.000000, 135.000000)">
                <rect id="Rectangle-1" fill="#EFEFE7" fill-rule="evenodd" x="0" y="0" width="89" height="33" rx="16.5"/>
                <text stroke="none" font-family="Source Code Pro" font-size="12px" font-weight="900" fill="#979797" fill-opacity="1" text-anchor="middle" id="C6">
                    <tspan x="44.5" y="21">Δ1</tspan>
                </text>
            </g>
            <g id="brown" transform="translate(348.000000, 86.000000)">
                <rect id="Rectangle-1" fill="#EFEFE7" fill-rule="evenodd" x="0" y="0" width="89" height="33" rx="16.5"/>
                <text stroke="none" font-family="Source Code Pro" font-size="12px" font-weight="900" fill="#979797" fill-opacity="1" text-anchor="middle" id="C6">
                    <tspan x="44.5" y="21">Δ2</tspan>
                </text>
            </g>
            <g id="brown" transform="translate(464.000000, 135.000000)">
                <rect id="Rectangle-1" fill="#EFEFE7" fill-rule="evenodd" x="0" y="0" width="89" height="33" rx="16.5"/>
                <text stroke="none" font-family="Source Code Pro" font-size="12px" font-weight="900" fill="#979797" fill-opacity="1" text-anchor="middle" id="C6">
                    <tspan x="44.5" y="21">Δ2</tspan>
                </text>
            </g>
            <g id="brown" transform="translate(464.000000, 184.000000)">
                <rect id="Rectangle-1" fill="#EFEFE7" fill-rule="evenodd" x="0" y="0" width="89" height="33" rx="16.5"/>
                <text stroke="none" font-family="Source Code Pro" font-size="12px" font-weight="900" fill="#979797" fill-opacity="1" text-anchor="middle" id="C6">
                    <tspan x="44.5" y="21">Δ3</tspan>
                </text>
            </g>
            <g id="brown" transform="translate(0.000000, 135.000000)">
                <rect id="Rectangle-1" fill="#EFEFE7" fill-rule="evenodd" x="0" y="0" width="89" height="33" rx="16.5"/>
                <text stroke="none" font-family="Source Code Pro" font-size="12px" font-weight="900" fill="#979797" fill-opacity="1" text-anchor="middle" id="C6">
                    <tspan x="44.5" y="21">File B</tspan>
                </text>
            </g>
            <g id="brown" transform="translate(0.000000, 184.000000)">
                <rect id="Rectangle-1" fill="#EFEFE7" fill-rule="evenodd" x="0" y="0" width="89" height="33" rx="16.5"/>
                <text stroke="none" font-family="Source Code Pro" font-size="12px" font-weight="900" fill="#979797" fill-opacity="1" text-anchor="middle" id="C6">
                    <tspan x="44.5" y="21">File C</tspan>
                </text>
            </g>
            <path id="Line" d="M107,103 L89,103 L89,102 L107,102 L107,98 L116,102.5 L107,107 L107,103 Z" fill="#8F8981" fill-rule="nonzero"/>
            <path id="Line-5" d="M339,103 L205,103 L205,102 L339,102 L339,98 L348,102.5 L339,107 L339,103 Z" fill="#8F8981" fill-rule="nonzero"/>
            <path id="Line-3" d="M339,152 L89,152 L89,151 L339,151 L339,147 L348,151.5 L339,156 L339,152 Z" fill="#8F8981" fill-rule="nonzero"/>
            <path id="Line-2" d="M107,201 L89,201 L89,200 L107,200 L107,196 L116,200.5 L107,205 L107,201 Z" fill="#8F8981" fill-rule="nonzero"/>
            <path id="Line-4" d="M223,201 L205,201 L205,200 L223,200 L223,196 L232,200.5 L223,205 L223,201 Z" fill="#8F8981" fill-rule="nonzero"/>
            <path id="Line-6" d="M455,201 L321,201 L321,200 L455,200 L455,196 L464,200.5 L455,205 L455,201 Z" fill="#8F8981" fill-rule="nonzero"/>
            <path id="Line-7" d="M455,152 L437,152 L437,151 L455,151 L455,147 L464,151.5 L455,156 L455,152 Z" fill="#8F8981" fill-rule="nonzero"/>
            <path id="Line" d="M538.5,17 L-0.5,17 L-0.5,15 L538.5,15 L538.5,9 L552.5,16 L538.5,23 L538.5,17 Z" fill="#8F8981" fill-rule="nonzero"/>
            <text stroke="none" font-family="Source Code Pro" font-size="12px" font-weight="900" fill="#413932" fill-opacity="1" id="Checkins-Over-Time">
                <tspan x="211" y="11">Checkins Over Time</tspan>
            </text>
        </g>
    </g>
</svg>
